static/icon/github.svg

<svg width="21" height="20" viewBox="0 0 21 20" fill="none" xmlns="http://www.w3.org/2000/svg">
<path d="M10.026 2.64914e-07C5.13295 -0.000628249 0.961831 3.54799 0.178415 8.37793C-0.605001 13.2079 2.23061 17.893 6.87302 19.439C7.37302 19.529 7.55202 19.222 7.55202 18.958C7.55202 18.721 7.54402 18.093 7.54102 17.258C4.76602 17.858 4.18002 15.92 4.18002 15.92C3.99733 15.317 3.60459 14.7993 3.07302 14.461C2.17302 13.842 3.14202 13.856 3.14202 13.856C3.78269 13.9438 4.34657 14.3235 4.66902 14.884C4.94195 15.3803 5.40177 15.747 5.94632 15.9026C6.49087 16.0583 7.07503 15.99 7.56902 15.713C7.61544 15.207 7.84055 14.7341 8.20402 14.379C5.99002 14.128 3.66202 13.272 3.66202 9.449C3.64973 8.4602 4.01691 7.5043 4.68802 6.778C4.38437 5.91731 4.42013 4.97325 4.78802 4.138C4.78802 4.138 5.62502 3.869 7.53002 5.159C9.16386 4.71101 10.8882 4.71101 12.522 5.159C14.428 3.868 15.264 4.138 15.264 4.138C15.6336 4.97286 15.6694 5.91757 15.364 6.778C16.0376 7.50423 16.4045 8.46264 16.388 9.453C16.388 13.286 14.058 14.128 11.836 14.375C12.3153 14.8651 12.5612 15.5373 12.511 16.221C12.511 17.555 12.499 18.631 12.499 18.958C12.499 19.225 12.677 19.535 13.186 19.437C17.8265 17.8884 20.6591 13.203 19.874 8.37432C19.089 3.54565 14.9181 -0.00111917 10.026 2.64914e-07Z" fill="#2E3A59"/>
</svg>

<svg width="21" height="20" fill="none" xmlns="http://www.w3.org/2000/svg"><path d="M10.026 0a9.975 9.975 0 00-3.153 19.439c.5.09.679-.217.679-.481 0-.237-.008-.865-.011-1.7-2.775.6-3.361-1.338-3.361-1.338a2.635 2.635 0 00-1.107-1.459c-.9-.619.069-.605.069-.605.64.088 1.205.467 1.527 1.028a2.124 2.124 0 002.9.829c.046-.506.272-.979.635-1.334-2.214-.251-4.542-1.107-4.542-4.93a3.865 3.865 0 011.026-2.671 3.588 3.588 0 01.1-2.64s.837-.269 2.742 1.021a9.439 9.439 0 014.992 0c1.906-1.291 2.742-1.021 2.742-1.021.37.835.405 1.78.1 2.64a3.84 3.84 0 011.024 2.675c0 3.833-2.33 4.675-4.552 4.922.48.49.725 1.162.675 1.846 0 1.334-.012 2.41-.012 2.737 0 .267.178.577.687.479A9.975 9.975 0 0010.026 0z" fill="#2E3A59"/></svg>
